X: 16221
T: Greenlights
R: polka
M: 2/4
K: Bminor
|:GE ED/E/|GA BG|EB AF|DG E2|
ED/E/ GA|B2 GB|de cA|d/c/B/A/ Fd:|
|:fg/f/ eB|fg/f/ eB|a3/2g/ ea|ga/g/ fB|
fg/f/ eB|fg/f/ eB|G3/2A/ Bd|c/d/c/A/ cd:|

